common/assets/images/onboarding/slide-02.svg

<svg viewBox="0 0 555.7 555.7" xmlns="http://www.w3.org/2000/svg"><path d="m101.25 439.06h100.92v-163.98h-100.92z" fill="#ffce00"/><path d="m202.17 439.06h151.37v-245.97h-151.37z" fill="#ffce00"/><path d="m353.54 439.06h100.91v-163.98h-100.91z" fill="#ffce00"/><path d="m435.53 439.06h18.92v-163.98h-18.92z" fill="#ffce00"/><path d="m101.25 439.06h18.93v-163.98h-18.93z" fill="#ffa21a" opacity=".39"/><g fill="#dfdfe3"><path d="m252.62 249.85h-12.62a6.31 6.31 0 0 1 -6.31-6.31v-12.61a6.31 6.31 0 0 1 6.31-6.31h12.61a6.31 6.31 0 0 1 6.31 6.31v12.61a6.31 6.31 0 0 1 -6.31 6.31"/><path d="m315.7 249.85h-12.62a6.31 6.31 0 0 1 -6.31-6.31v-12.61a6.31 6.31 0 0 1 6.31-6.31h12.62a6.31 6.31 0 0 1 6.31 6.31v12.61a6.31 6.31 0 0 1 -6.31 6.31"/><path d="m252.62 300.31h-12.62a6.31 6.31 0 0 1 -6.3-6.31v-12.61a6.31 6.31 0 0 1 6.31-6.31h12.61a6.31 6.31 0 0 1 6.31 6.31v12.61a6.31 6.31 0 0 1 -6.31 6.31"/><path d="m315.7 300.31h-12.62a6.31 6.31 0 0 1 -6.31-6.31v-12.61a6.31 6.31 0 0 1 6.31-6.31h12.62a6.31 6.31 0 0 1 6.31 6.31v12.61a6.31 6.31 0 0 1 -6.31 6.31"/><path d="m252.62 350.77h-12.62a6.31 6.31 0 0 1 -6.31-6.31v-12.62a6.31 6.31 0 0 1 6.31-6.31h12.61a6.31 6.31 0 0 1 6.31 6.31v12.61a6.31 6.31 0 0 1 -6.31 6.31"/><path d="m315.7 350.77h-12.62a6.31 6.31 0 0 1 -6.31-6.31v-12.62a6.31 6.31 0 0 1 6.31-6.31h12.62a6.31 6.31 0 0 1 6.31 6.31v12.61a6.31 6.31 0 0 1 -6.31 6.31"/></g><path d="m252.63 439.06h50.45v-56.76h-50.45z" fill="#ffa21a"/><path d="m132.79 413.84h37.84v-50.46h-37.84z" fill="#dfdfe3"/><path d="m132.79 338.15h37.84v-37.84h-37.84z" fill="#dfdfe3"/><path d="m385.07 413.84h37.85v-50.46h-37.85z" fill="#dfdfe3"/><path d="m385.07 338.15h37.85v-37.84h-37.85z" fill="#dfdfe3"/><path d="m284.16 174.14a25.23 25.23 0 0 1 -25.2-25.2 6.28 6.28 0 1 1 12.56 0 12.64 12.64 0 1 0 12.64-12.64 25.2 25.2 0 1 1 25.2-25.2 6.28 6.28 0 1 1 -12.56 0 12.64 12.64 0 1 0 -12.64 12.64 25.2 25.2 0 1 1 0 50.41z" fill="#ffa21a"/><path d="m284.16 199.37a6.28 6.28 0 0 1 -6.28-6.28v-119.83a6.28 6.28 0 1 1 12.56 0v119.83a6.28 6.28 0 0 1 -6.28 6.28z" fill="#ffa21a"/><path d="m353.54 445.35h-151.37a6.28 6.28 0 0 1 -6.28-6.28v-246a6.28 6.28 0 0 1 6.28-6.28h151.37a6.28 6.28 0 0 1 6.28 6.28v246a6.28 6.28 0 0 1 -6.28 6.28zm-145.09-12.57h138.8v-233.41h-138.8z"/><path d="m454.45 445.35h-100.91a6.28 6.28 0 0 1 -6.28-6.28v-164a6.28 6.28 0 0 1 6.28-6.28h100.91a6.28 6.28 0 0 1 6.28 6.28v164a6.28 6.28 0 0 1 -6.28 6.28zm-94.63-12.56h88.35v-151.43h-88.35v151.42z"/><path d="m202.17 445.35h-100.91a6.28 6.28 0 0 1 -6.26-6.29v-164a6.28 6.28 0 0 1 6.28-6.28h100.89a6.28 6.28 0 0 1 6.28 6.28v164a6.28 6.28 0 0 1 -6.28 6.29zm-94.63-12.56h88.35v-151.43h-88.35z"/><path d="m101.26 281.36h-6.31a6.28 6.28 0 1 1 0-12.56h6.31a6.28 6.28 0 0 1 0 12.56z"/><path d="m460.76 281.36h-6.31a6.28 6.28 0 1 1 0-12.56h6.31a6.28 6.28 0 0 1 0 12.56z"/><path d="m366.15 199.37h-176.6a6.28 6.28 0 0 1 0-12.56h176.6a6.28 6.28 0 0 1 0 12.56z"/><path d="m252.62 256.14h-12.62a12.6 12.6 0 0 1 -12.59-12.59v-12.62a12.6 12.6 0 0 1 12.59-12.59h12.61a12.6 12.6 0 0 1 12.59 12.59v12.61a12.6 12.6 0 0 1 -12.58 12.6zm-12.62-25.23v12.64h12.64v-12.62z"/><path d="m315.7 256.14h-12.62a12.6 12.6 0 0 1 -12.59-12.59v-12.62a12.6 12.6 0 0 1 12.59-12.59h12.62a12.6 12.6 0 0 1 12.59 12.59v12.61a12.6 12.6 0 0 1 -12.59 12.6zm-12.61-25.23v12.64h12.64v-12.62z"/><path d="m252.62 306.59h-12.62a12.6 12.6 0 0 1 -12.58-12.59v-12.61a12.6 12.6 0 0 1 12.58-12.59h12.61a12.6 12.6 0 0 1 12.59 12.59v12.61a12.6 12.6 0 0 1 -12.58 12.59zm-12.62-25.23v12.64h12.64v-12.61z"/><path d="m315.7 306.59h-12.62a12.6 12.6 0 0 1 -12.59-12.59v-12.61a12.6 12.6 0 0 1 12.59-12.59h12.62a12.6 12.6 0 0 1 12.59 12.59v12.61a12.6 12.6 0 0 1 -12.59 12.59zm-12.61-25.23v12.64h12.64v-12.61z"/><path d="m252.62 357h-12.62a12.6 12.6 0 0 1 -12.59-12.59v-12.57a12.6 12.6 0 0 1 12.59-12.58h12.61a12.6 12.6 0 0 1 12.59 12.59v12.61a12.6 12.6 0 0 1 -12.58 12.54zm-12.62-25.18v12.64h12.64v-12.62z"/><path d="m315.7 357h-12.62a12.6 12.6 0 0 1 -12.59-12.59v-12.57a12.6 12.6 0 0 1 12.59-12.59h12.62a12.6 12.6 0 0 1 12.59 12.59v12.61a12.6 12.6 0 0 1 -12.59 12.55zm-12.61-25.23v12.64h12.64v-12.57z"/><path d="m303.08 445.35h-50.46a6.28 6.28 0 0 1 -6.28-6.28v-56.77a6.28 6.28 0 0 1 6.28-6.28h50.46a6.28 6.28 0 0 1 6.28 6.28v56.76a6.28 6.28 0 0 1 -6.28 6.29zm-44.18-12.56h37.9v-44.2h-37.89v44.2z"/><path d="m277.85 174.14a25.23 25.23 0 0 1 -25.2-25.2 6.28 6.28 0 1 1 12.56 0 12.64 12.64 0 1 0 12.64-12.64 25.2 25.2 0 1 1 25.2-25.2 6.28 6.28 0 1 1 -12.56 0 12.64 12.64 0 1 0 -12.64 12.64 25.2 25.2 0 1 1 0 50.41z"/><path d="m277.85 199.37a6.28 6.28 0 0 1 -6.28-6.28v-119.83a6.28 6.28 0 1 1 12.56 0v119.83a6.28 6.28 0 0 1 -6.28 6.28z"/><path d="m170.63 420.12h-37.84a6.28 6.28 0 0 1 -6.28-6.28v-50.46a6.28 6.28 0 0 1 6.28-6.28h37.84a6.28 6.28 0 0 1 6.28 6.28v50.46a6.28 6.28 0 0 1 -6.28 6.28zm-31.56-12.56h25.28v-37.9h-25.28z"/><path d="m170.63 344.43h-37.84a6.28 6.28 0 0 1 -6.28-6.28v-37.84a6.28 6.28 0 0 1 6.28-6.28h37.84a6.28 6.28 0 0 1 6.28 6.28v37.84a6.28 6.28 0 0 1 -6.28 6.28zm-31.56-12.56h25.28v-25.28h-25.28z"/><path d="m422.91 420.12h-37.84a6.28 6.28 0 0 1 -6.28-6.28v-50.46a6.28 6.28 0 0 1 6.28-6.28h37.84a6.28 6.28 0 0 1 6.28 6.28v50.46a6.28 6.28 0 0 1 -6.28 6.28zm-31.56-12.56h25.28v-37.9h-25.28z"/><path d="m422.91 344.43h-37.84a6.28 6.28 0 0 1 -6.28-6.28v-37.84a6.28 6.28 0 0 1 6.28-6.28h37.84a6.28 6.28 0 0 1 6.28 6.28v37.84a6.28 6.28 0 0 1 -6.28 6.28zm-31.56-12.56h25.28v-25.28h-25.28z"/><path d="m277.85 16.22c-144.5 0-261.64 117.14-261.64 261.64s117.14 261.63 261.64 261.63 261.64-117.14 261.64-261.64-117.14-261.63-261.64-261.63zm-219.52 261.63c0-121.24 98.28-219.52 219.52-219.52a218.63 218.63 0 0 1 139.62 50.12l-309 309a218.63 218.63 0 0 1 -50.14-139.6zm219.52 219.52a218.63 218.63 0 0 1 -139.62-50.12l309-309a218.63 218.63 0 0 1 50.12 139.62c.02 121.22-98.26 219.5-219.5 219.5z" fill="#ff2434"/><path d="m174.15 340.61-65 65a211.65 211.65 0 0 1 8.69-266.25 7.9 7.9 0 1 0 -11.95-10.36 227.44 227.44 0 0 0 -3.53 293.48 7.9 7.9 0 0 0 5.71 2.86h.38a7.9 7.9 0 0 0 5.58-2.31l73.54-73.54.09-.09 235.4-235.4a7.9 7.9 0 0 0 -.56-11.68 227.44 227.44 0 0 0 -293.5 3.57 7.9 7.9 0 0 0 10.34 11.94 211.65 211.65 0 0 1 266.25-8.69l-25.83 25.86"/><path d="m453.35 133.2a7.9 7.9 0 0 0 -11.68-.56l-73.5 73.5-.19.19-191.46 191.46-.12.12-43.75 43.75a7.9 7.9 0 0 0 .56 11.68 227.43 227.43 0 0 0 320.14-320.14zm-71.79 81.89 65-65a212 212 0 0 1 42.91 127.77c0 116.69-94.93 211.62-211.62 211.62a212 212 0 0 1 -127.77-42.91l25.86-25.86"/><path d="m468.44 87.26a269.53 269.53 0 0 0 -381.18 381.18 269.53 269.53 0 0 0 381.18-381.18zm-190.59 444.33c-139.91 0-253.74-113.83-253.74-253.74s113.83-253.74 253.74-253.74 253.74 113.83 253.74 253.74-113.83 253.74-253.74 253.74z"/></svg>

<svg id="Capa_1" data-name="Capa 1" xmlns="http://www.w3.org/2000/svg" viewBox="0 0 555.7 555.7"><defs><style>.cls-1{fill:#ffce00;}.cls-2,.cls-4{fill:#ffa21a;}.cls-2{opacity:0.39;}.cls-3{fill:#dfdfe3;isolation:isolate;}.cls-5{fill:#ff2434;}</style></defs><title>onboarding_icons</title><polygon class="cls-1" points="101.25 439.06 202.17 439.06 202.17 275.08 101.25 275.08 101.25 439.06"/><polygon class="cls-1" points="202.17 439.06 353.54 439.06 353.54 193.09 202.17 193.09 202.17 439.06"/><polygon class="cls-1" points="353.54 439.06 454.45 439.06 454.45 275.08 353.54 275.08 353.54 439.06"/><polygon class="cls-1" points="435.53 439.06 454.45 439.06 454.45 275.08 435.53 275.08 435.53 439.06"/><polygon class="cls-2" points="101.25 439.06 120.18 439.06 120.18 275.08 101.25 275.08 101.25 439.06"/><path class="cls-3" d="M252.62,249.85H240a6.31,6.31,0,0,1-6.31-6.31V230.93a6.31,6.31,0,0,1,6.31-6.31h12.61a6.31,6.31,0,0,1,6.31,6.31v12.61a6.31,6.31,0,0,1-6.31,6.31"/><path class="cls-3" d="M315.7,249.85H303.08a6.31,6.31,0,0,1-6.31-6.31V230.93a6.31,6.31,0,0,1,6.31-6.31H315.7a6.31,6.31,0,0,1,6.31,6.31v12.61a6.31,6.31,0,0,1-6.31,6.31"/><path class="cls-3" d="M252.62,300.31H240A6.31,6.31,0,0,1,233.7,294V281.39a6.31,6.31,0,0,1,6.31-6.31h12.61a6.31,6.31,0,0,1,6.31,6.31V294a6.31,6.31,0,0,1-6.31,6.31"/><path class="cls-3" d="M315.7,300.31H303.08a6.31,6.31,0,0,1-6.31-6.31V281.39a6.31,6.31,0,0,1,6.31-6.31H315.7a6.31,6.31,0,0,1,6.31,6.31V294a6.31,6.31,0,0,1-6.31,6.31"/><path class="cls-3" d="M252.62,350.77H240a6.31,6.31,0,0,1-6.31-6.31V331.84a6.31,6.31,0,0,1,6.31-6.31h12.61a6.31,6.31,0,0,1,6.31,6.31v12.61a6.31,6.31,0,0,1-6.31,6.31"/><path class="cls-3" d="M315.7,350.77H303.08a6.31,6.31,0,0,1-6.31-6.31V331.84a6.31,6.31,0,0,1,6.31-6.31H315.7a6.31,6.31,0,0,1,6.31,6.31v12.61a6.31,6.31,0,0,1-6.31,6.31"/><polygon class="cls-4" points="252.63 439.06 303.08 439.06 303.08 382.3 252.63 382.3 252.63 439.06"/><polygon class="cls-3" points="132.79 413.84 170.63 413.84 170.63 363.38 132.79 363.38 132.79 413.84"/><polygon class="cls-3" points="132.79 338.15 170.63 338.15 170.63 300.31 132.79 300.31 132.79 338.15"/><polygon class="cls-3" points="385.07 413.84 422.92 413.84 422.92 363.38 385.07 363.38 385.07 413.84"/><polygon class="cls-3" points="385.07 338.15 422.92 338.15 422.92 300.31 385.07 300.31 385.07 338.15"/><path class="cls-4" d="M284.16,174.14a25.23,25.23,0,0,1-25.2-25.2,6.28,6.28,0,1,1,12.56,0,12.64,12.64,0,1,0,12.64-12.64,25.2,25.2,0,1,1,25.2-25.2,6.28,6.28,0,1,1-12.56,0,12.64,12.64,0,1,0-12.64,12.64,25.2,25.2,0,1,1,0,50.41Z"/><path class="cls-4" d="M284.16,199.37a6.28,6.28,0,0,1-6.28-6.28V73.26a6.28,6.28,0,1,1,12.56,0V193.09A6.28,6.28,0,0,1,284.16,199.37Z"/><path d="M353.54,445.35H202.17a6.28,6.28,0,0,1-6.28-6.28v-246a6.28,6.28,0,0,1,6.28-6.28H353.54a6.28,6.28,0,0,1,6.28,6.28v246A6.28,6.28,0,0,1,353.54,445.35ZM208.45,432.78h138.8V199.37H208.45Z"/><path d="M454.45,445.35H353.54a6.28,6.28,0,0,1-6.28-6.28v-164a6.28,6.28,0,0,1,6.28-6.28H454.45a6.28,6.28,0,0,1,6.28,6.28v164A6.28,6.28,0,0,1,454.45,445.35Zm-94.63-12.56h88.35V281.36H359.82V432.78Z"/><path d="M202.17,445.35H101.26A6.28,6.28,0,0,1,95,439.06v-164a6.28,6.28,0,0,1,6.28-6.28H202.17a6.28,6.28,0,0,1,6.28,6.28v164A6.28,6.28,0,0,1,202.17,445.35Zm-94.63-12.56h88.35V281.36H107.54Z"/><path d="M101.26,281.36H94.95a6.28,6.28,0,1,1,0-12.56h6.31a6.28,6.28,0,0,1,0,12.56Z"/><path d="M460.76,281.36h-6.31a6.28,6.28,0,1,1,0-12.56h6.31a6.28,6.28,0,0,1,0,12.56Z"/><path d="M366.15,199.37H189.55a6.28,6.28,0,0,1,0-12.56h176.6a6.28,6.28,0,0,1,0,12.56Z"/><path d="M252.62,256.14H240a12.6,12.6,0,0,1-12.59-12.59V230.93A12.6,12.6,0,0,1,240,218.34h12.61a12.6,12.6,0,0,1,12.59,12.59v12.61A12.6,12.6,0,0,1,252.62,256.14ZM240,230.91l0,12.64,12.64,0h0V230.93Z"/><path d="M315.7,256.14H303.08a12.6,12.6,0,0,1-12.59-12.59V230.93a12.6,12.6,0,0,1,12.59-12.59H315.7a12.6,12.6,0,0,1,12.59,12.59v12.61A12.6,12.6,0,0,1,315.7,256.14Zm-12.61-25.23,0,12.64,12.64,0h0V230.93Z"/><path d="M252.62,306.59H240A12.6,12.6,0,0,1,227.42,294V281.39A12.6,12.6,0,0,1,240,268.8h12.61a12.6,12.6,0,0,1,12.59,12.59V294A12.6,12.6,0,0,1,252.62,306.59ZM240,281.36,240,294l12.64,0h0V281.39Z"/><path d="M315.7,306.59H303.08A12.6,12.6,0,0,1,290.49,294V281.39a12.6,12.6,0,0,1,12.59-12.59H315.7a12.6,12.6,0,0,1,12.59,12.59V294A12.6,12.6,0,0,1,315.7,306.59Zm-12.61-25.23,0,12.64,12.64,0h0V281.39Z"/><path d="M252.62,357H240a12.6,12.6,0,0,1-12.59-12.59V331.84A12.6,12.6,0,0,1,240,319.26h12.61a12.6,12.6,0,0,1,12.59,12.59v12.61A12.6,12.6,0,0,1,252.62,357ZM240,331.82l0,12.64,12.64,0h0V331.84Z"/><path d="M315.7,357H303.08a12.6,12.6,0,0,1-12.59-12.59V331.84a12.6,12.6,0,0,1,12.59-12.59H315.7a12.6,12.6,0,0,1,12.59,12.59v12.61A12.6,12.6,0,0,1,315.7,357Zm-12.61-25.23,0,12.64,12.64,0h0V331.84Z"/><path d="M303.08,445.35H252.62a6.28,6.28,0,0,1-6.28-6.28V382.3a6.28,6.28,0,0,1,6.28-6.28h50.46a6.28,6.28,0,0,1,6.28,6.28v56.76A6.28,6.28,0,0,1,303.08,445.35Zm-44.18-12.56H296.8v-44.2H258.91v44.2Z"/><path d="M277.85,174.14a25.23,25.23,0,0,1-25.2-25.2,6.28,6.28,0,1,1,12.56,0,12.64,12.64,0,1,0,12.64-12.64,25.2,25.2,0,1,1,25.2-25.2,6.28,6.28,0,1,1-12.56,0,12.64,12.64,0,1,0-12.64,12.64,25.2,25.2,0,1,1,0,50.41Z"/><path d="M277.85,199.37a6.28,6.28,0,0,1-6.28-6.28V73.26a6.28,6.28,0,1,1,12.56,0V193.09A6.28,6.28,0,0,1,277.85,199.37Z"/><path d="M170.63,420.12H132.79a6.28,6.28,0,0,1-6.28-6.28V363.38a6.28,6.28,0,0,1,6.28-6.28h37.84a6.28,6.28,0,0,1,6.28,6.28v50.46A6.28,6.28,0,0,1,170.63,420.12Zm-31.56-12.56h25.28V369.66H139.07Z"/><path d="M170.63,344.43H132.79a6.28,6.28,0,0,1-6.28-6.28V300.31a6.28,6.28,0,0,1,6.28-6.28h37.84a6.28,6.28,0,0,1,6.28,6.28v37.84A6.28,6.28,0,0,1,170.63,344.43Zm-31.56-12.56h25.28V306.59H139.07Z"/><path d="M422.91,420.12H385.07a6.28,6.28,0,0,1-6.28-6.28V363.38a6.28,6.28,0,0,1,6.28-6.28h37.84a6.28,6.28,0,0,1,6.28,6.28v50.46A6.28,6.28,0,0,1,422.91,420.12Zm-31.56-12.56h25.28V369.66H391.35Z"/><path d="M422.91,344.43H385.07a6.28,6.28,0,0,1-6.28-6.28V300.31a6.28,6.28,0,0,1,6.28-6.28h37.84a6.28,6.28,0,0,1,6.28,6.28v37.84A6.28,6.28,0,0,1,422.91,344.43Zm-31.56-12.56h25.28V306.59H391.35Z"/><path class="cls-5" d="M277.85,16.22c-144.5,0-261.64,117.14-261.64,261.64S133.35,539.49,277.85,539.49,539.49,422.35,539.49,277.85,422.35,16.22,277.85,16.22ZM58.33,277.85c0-121.24,98.28-219.52,219.52-219.52a218.63,218.63,0,0,1,139.62,50.12l-309,309A218.63,218.63,0,0,1,58.33,277.85ZM277.85,497.37a218.63,218.63,0,0,1-139.62-50.12l309-309a218.63,218.63,0,0,1,50.12,139.62C497.37,399.09,399.09,497.37,277.85,497.37Z"/><path d="M174.15,340.61l-65,65a211.65,211.65,0,0,1,8.69-266.25A7.9,7.9,0,1,0,105.89,129a227.44,227.44,0,0,0-3.53,293.48,7.9,7.9,0,0,0,5.71,2.86h.38a7.9,7.9,0,0,0,5.58-2.31l73.54-73.54.09-.09L423.06,114a7.9,7.9,0,0,0-.56-11.68A227.44,227.44,0,0,0,129,105.89a7.9,7.9,0,0,0,10.34,11.94,211.65,211.65,0,0,1,266.25-8.69L379.76,135"/><path d="M453.35,133.2a7.9,7.9,0,0,0-11.68-.56l-73.5,73.5-.19.19L176.52,397.79l-.12.12-43.75,43.75a7.9,7.9,0,0,0,.56,11.68A227.43,227.43,0,0,0,453.35,133.2Zm-71.79,81.89,65-65a212,212,0,0,1,42.91,127.77c0,116.69-94.93,211.62-211.62,211.62a212,212,0,0,1-127.77-42.91l25.86-25.86"/><path d="M468.44,87.26A269.53,269.53,0,0,0,87.26,468.44,269.53,269.53,0,0,0,468.44,87.26ZM277.85,531.59c-139.91,0-253.74-113.83-253.74-253.74S137.94,24.11,277.85,24.11,531.59,137.94,531.59,277.85,417.76,531.59,277.85,531.59Z"/></svg>
